frontend/public/svg/health/blood.svg

<svg width="114" height="157" viewBox="0 0 114 157" fill="none" xmlns="http://www.w3.org/2000/svg">
<g clip-path="url(#clip0)">
<path d="M0.728027 106.354C0.924927 94.495 4.02543 83.2499 7.4161 72.062C12.2084 56.3671 19.3565 41.4907 28.6158 27.942C34.0561 20.0813 40.4657 12.9378 47.6929 6.68054C48.6838 5.78682 49.559 4.77248 50.2979 3.66132C51.793 1.44881 53.7705 0.359937 56.2823 1.09766C58.2344 1.59122 60.0705 2.46369 61.6861 3.66532C65.451 6.68466 69.0217 9.93869 72.3763 13.408C81.8637 23.4946 90.4873 34.3222 97.4661 46.286C106.931 62.5133 112.916 79.9164 112.796 98.9521C112.731 108.911 111.221 118.655 106.117 127.475C98.9094 139.936 87.875 147.742 74.6223 152.497C61.5987 157.172 48.2173 157.528 34.8188 154.178C19.3699 150.315 4.82415 138.107 1.80499 117.395C1.27533 113.739 1.07917 110.035 0.728027 106.354ZM53.3591 10.6173C46.4216 16.7488 38.5436 26.2906 33.7924 33.7683C23.7655 49.6313 16.415 67.0351 12.0348 85.2832C9.42587 95.9323 8.03116 106.618 9.89516 117.607C12.8152 134.851 25.4831 145.023 39.2747 147.457C45.5946 148.573 51.938 149.125 58.374 148.36C71.0505 146.85 82.1603 141.993 91.3405 133.067C96.5125 128.174 100.134 121.871 101.755 114.939C103.739 106.494 104.039 97.7412 102.637 89.1806C100.208 74.1806 94.4922 59.9025 85.9008 47.3682C79.6505 38.17 72.6441 29.5088 64.9552 21.4744C61.3198 17.6965 57.3037 14.2882 53.3591 10.6173Z" fill="black"/>
<path d="M97.1269 99.1645C97.333 102.785 96.0374 107.853 93.3904 112.532C92.4151 114.161 91.2094 115.641 89.8114 116.926C88.6254 118.063 87.0127 118.548 85.5078 117.423C84.1872 116.439 84.0238 114.966 84.5607 113.485C85.0555 112 85.6679 110.556 86.3918 109.168C92.1197 98.8948 91.38 88.547 86.8749 78.127C86.4752 77.2028 85.851 76.2721 85.8149 75.3257C85.7814 74.462 86.172 73.1821 86.8047 72.8073C87.2444 72.6544 87.7144 72.6091 88.1744 72.6761C88.6352 72.7424 89.073 72.9196 89.4504 73.1913C90.4336 74.1089 91.2448 75.1938 91.8473 76.3949C95.4966 82.9031 97.0166 89.9574 97.1269 99.1645Z" fill="black"/>
<path d="M82.1021 127.178C82.112 127.638 82.0293 128.094 81.858 128.52C81.6867 128.946 81.43 129.333 81.1052 129.657C80.7803 129.982 80.3924 130.236 79.9657 130.406C79.5391 130.576 79.083 130.658 78.6235 130.646C78.1648 130.635 77.7125 130.53 77.2951 130.339C76.8777 130.148 76.5036 129.873 76.1951 129.533C75.8866 129.193 75.651 128.794 75.5013 128.359C75.3517 127.925 75.292 127.465 75.3254 127.007C75.4147 125.048 76.9007 123.435 78.5822 123.463C79.5267 123.531 80.4114 123.95 81.0631 124.638C81.7142 125.325 82.0851 126.232 82.1021 127.178Z" fill="black"/>
</g>
<defs>
<clipPath id="clip0">
<rect width="112.89" height="156.208" fill="white" transform="translate(0.190552 0.636353)"/>
</clipPath>
</defs>
</svg>

<svg xmlns="http://www.w3.org/2000/svg" width="114" height="157" fill="none" viewBox="0 0 114 157"><g fill="#000" clip-path="url(#a)"><path d="M.728 106.354C.925 94.495 4.025 83.25 7.416 72.062a162 162 0 0 1 21.2-44.12A113.7 113.7 0 0 1 47.693 6.681a16 16 0 0 0 2.605-3.02C51.793 1.45 53.77.36 56.282 1.098a15.4 15.4 0 0 1 5.404 2.567 115 115 0 0 1 10.69 9.743c9.488 10.087 18.111 20.914 25.09 32.878 9.465 16.227 15.45 33.63 15.33 52.666-.065 9.959-1.575 19.703-6.679 28.523-7.208 12.461-18.242 20.267-31.495 25.022-13.023 4.675-26.405 5.031-39.803 1.681-15.45-3.863-29.995-16.071-33.014-36.783-.53-3.656-.726-7.36-1.077-11.041m52.631-95.737c-6.937 6.132-14.815 15.674-19.567 23.151a171.2 171.2 0 0 0-21.757 51.515c-2.61 10.65-4.004 21.335-2.14 32.324 2.92 17.244 15.588 27.416 29.38 29.85 6.32 1.116 12.663 1.668 19.099.903 12.676-1.51 23.786-6.367 32.967-15.293a36.35 36.35 0 0 0 10.414-18.128 66 66 0 0 0 .882-25.758 103.1 103.1 0 0 0-16.736-41.813 200 200 0 0 0-20.946-25.894c-3.635-3.777-7.651-7.186-11.596-10.857"/><path d="M97.127 99.165c.206 3.62-1.09 8.688-3.737 13.367a19.8 19.8 0 0 1-3.579 4.394c-1.186 1.137-2.798 1.622-4.303.497-1.32-.984-1.484-2.457-.947-3.938a29.5 29.5 0 0 1 1.83-4.317c5.729-10.273 4.989-20.621.484-31.041-.4-.924-1.024-1.855-1.06-2.801-.034-.864.357-2.144.99-2.519a2.9 2.9 0 0 1 2.645.384 11.3 11.3 0 0 1 2.397 3.204c3.65 6.508 5.17 13.562 5.28 22.77m-15.025 28.013a3.4 3.4 0 0 1-.997 2.479 3.385 3.385 0 0 1-3.81.682 3.39 3.39 0 0 1-1.97-3.332c.09-1.959 1.576-3.572 3.257-3.544a3.79 3.79 0 0 1 3.52 3.715"/></g><defs><clipPath id="a"><path fill="#fff" d="M.19.636h112.89v156.208H.19z"/></clipPath></defs></svg>
